X: 1
T: Humours Of Derrycrossane, The
Z: Dr. Dow
S: https://thesession.org/tunes/1550#setting1550
R: slip jig
M: 9/8
L: 1/8
K: Gmaj
B3 BAB c3|BAG B/c/dB ABc|BAG B/c/dB c2e|1 dBG GAF G2A:|2 dBG GAF GB/^c/d||
g3 ed=c Bcd|ecA ABG A2d|~g3 edc Bcd|gdB G/A/BA GB/^c/d|
g3 ed=c Bcd|ecA ABG A2d|def gfe def|g/a/bg agf ged||

